X: 090
T: Miss Baker's Hornpipe
B: 204 Favourite Country Dances
N: Published by Straight & Skillern, London ca.1775
F: http://imslp.org/wiki/204_Favourite_Country_Dances_(Various) p.45 #90
Z: 2014 John Chambers <jc:trillian.mit.edu>
N: Removed flag from last note to fix the rhythm on repeats.
M: C|
L: 1/8
K: F
% - - - - - - - - - - - - - - - - - - - - - - - - -
cB |\
A2F2- FAGF | EGB2- BdcB |\
Acde fcdB | A2F2- F2 :|\
|: (3(cde) |\
fcAc fagf | gece gbag |
afge fdgf | e2c2- c2fc |\
(3(def) (3(ABc) B2ba | gfed c2BA |\
(3(Bcd) (3(EFG) FdcB | (A2F2 F2) :|
% - - - - - - - - - - - - - - - - - - - - - - - - -
%%begintext align
%% 1st Man foot to the 2d Wo. & turn 1st Wo.
%% D.o to the 2d Man hands round four half
%% figure with the top Cu. hands round 4
%% at bottom right & left at top
%%endtext

%%sep 1 1 500
%%sep 1 1 500
